public/home/200times.svg

<svg width="340" height="60" viewBox="0 0 340 60" fill="none" xmlns="http://www.w3.org/2000/svg">
<g clip-path="url(#clip0_179_179)">
<path d="M94.01 8.74982C95.68 9.36982 97.12 10.2198 98.31 11.3198C99.5 12.4198 100.44 13.7398 101.11 15.2798C101.78 16.8198 102.12 18.5098 102.12 20.3598C102.08 21.8598 101.8 23.3098 101.28 24.7198C100.76 26.1298 100.1 27.4598 99.29 28.7298C98.48 29.9998 97.57 31.2298 96.55 32.4298C95.53 33.6198 94.48 34.7798 93.4 35.8898L84.45 44.8998C85.22 44.7098 85.96 44.5798 86.67 44.5198C87.38 44.4598 88.07 44.4298 88.72 44.4298H102.58V51.7098H72.5V47.0898L86.99 32.8298C89.18 30.6398 90.92 28.5998 92.19 26.7098C93.46 24.8198 94.1 22.7598 94.1 20.5298C94.1 18.5298 93.55 17.0198 92.45 15.9998C91.35 14.9798 89.86 14.4698 87.98 14.4698C86.36 14.4698 85 14.9398 83.88 15.8798C82.76 16.8198 81.97 17.9298 81.51 19.1998C81.36 19.6198 81.25 20.0698 81.19 20.5298C81.13 20.9898 81.08 21.5098 81.05 22.0898L73.49 20.8198C74.18 16.3898 75.87 13.1198 78.54 10.9998C81.21 8.87982 84.54 7.81982 88.5 7.81982C90.5 7.81982 92.34 8.12982 94.01 8.73982V8.74982Z" fill="#FFD600" stroke="black" stroke-width="5"/>
<path d="M136.762 40.19C135.952 42.98 134.832 45.29 133.382 47.12C131.932 48.95 130.232 50.31 128.272 51.19C126.312 52.07 124.172 52.52 121.862 52.52C119.552 52.52 117.542 52.08 115.592 51.19C113.642 50.3 111.952 48.95 110.512 47.12C109.072 45.29 107.942 42.98 107.132 40.19C106.322 37.4 105.922 34.1 105.922 30.29C105.922 26.48 106.322 23.12 107.132 20.33C107.942 17.54 109.062 15.23 110.512 13.4C111.952 11.57 113.652 10.22 115.592 9.33C117.532 8.44 119.622 8 121.862 8C124.102 8 126.312 8.44 128.272 9.33C130.232 10.22 131.942 11.57 133.382 13.4C134.822 15.23 135.952 17.54 136.762 20.33C137.572 23.12 137.972 26.44 137.972 30.29C137.972 34.14 137.572 37.4 136.762 40.19ZM129.222 22.64C128.782 20.62 128.192 19.02 127.462 17.85C126.732 16.68 125.872 15.85 124.892 15.37C123.912 14.89 122.902 14.65 121.862 14.65C120.822 14.65 119.892 14.89 118.942 15.37C118.002 15.85 117.162 16.68 116.432 17.85C115.702 19.02 115.112 20.62 114.672 22.64C114.232 24.66 114.012 27.21 114.012 30.29C114.012 33.37 114.232 35.85 114.672 37.85C115.112 39.85 115.702 41.45 116.432 42.64C117.162 43.83 118.002 44.66 118.942 45.12C119.882 45.58 120.852 45.81 121.862 45.81C122.872 45.81 123.912 45.58 124.892 45.12C125.872 44.66 126.732 43.83 127.462 42.64C128.192 41.45 128.782 39.85 129.222 37.85C129.662 35.85 129.882 33.33 129.882 30.29C129.882 27.25 129.662 24.66 129.222 22.64Z" fill="#FFD600" stroke="black" stroke-width="5"/>
<path d="M171.182 40.19C170.372 42.98 169.252 45.29 167.802 47.12C166.352 48.95 164.652 50.31 162.692 51.19C160.732 52.07 158.592 52.52 156.282 52.52C153.972 52.52 151.962 52.08 150.022 51.19C148.082 50.31 146.382 48.95 144.942 47.12C143.502 45.29 142.372 42.98 141.562 40.19C140.752 37.4 140.352 34.1 140.352 30.29C140.352 26.48 140.752 23.12 141.562 20.33C142.372 17.54 143.492 15.23 144.942 13.4C146.382 11.57 148.082 10.22 150.022 9.33C151.962 8.44 154.052 8 156.282 8C158.512 8 160.732 8.44 162.692 9.33C164.652 10.22 166.362 11.57 167.802 13.4C169.242 15.23 170.372 17.54 171.182 20.33C171.992 23.12 172.392 26.44 172.392 30.29C172.392 34.14 171.992 37.4 171.182 40.19ZM163.642 22.64C163.202 20.62 162.612 19.02 161.882 17.85C161.152 16.68 160.292 15.85 159.312 15.37C158.332 14.89 157.322 14.65 156.282 14.65C155.242 14.65 154.312 14.89 153.362 15.37C152.422 15.85 151.582 16.68 150.852 17.85C150.122 19.02 149.532 20.62 149.092 22.64C148.652 24.66 148.432 27.21 148.432 30.29C148.432 33.37 148.652 35.85 149.092 37.85C149.532 39.85 150.122 41.45 150.852 42.64C151.582 43.83 152.422 44.66 153.362 45.12C154.302 45.58 155.282 45.81 156.282 45.81C157.282 45.81 158.332 45.58 159.312 45.12C160.292 44.66 161.152 43.83 161.882 42.64C162.612 41.45 163.202 39.85 163.642 37.85C164.082 35.85 164.302 33.33 164.302 30.29C164.302 27.25 164.082 24.66 163.642 22.64Z" fill="#FFD600" stroke="black" stroke-width="5"/>
<path d="M175.801 27.1198H187.461V14.8198H193.751V27.1198H205.411V33.1298H193.751V45.4298H187.461V33.1298H175.801V27.1198Z" fill="#FFD600" stroke="black" stroke-width="5"/>
<path d="M250.83 40.86C252.97 40.71 255.07 40.48 257.15 40.17L257.73 45.66C254.84 46.2 251.92 46.61 248.95 46.9C245.99 47.19 243.08 47.41 240.23 47.56C237.38 47.71 234.62 47.8 231.94 47.82C229.26 47.84 226.75 47.85 224.4 47.85L223.48 41.67H229.77C231.96 41.67 234.27 41.63 236.7 41.55V37.05C233.81 36.51 231.52 35.4 229.83 33.7C228.14 32.01 227.29 29.93 227.29 27.46C227.29 25.96 227.62 24.59 228.27 23.36C228.92 22.13 229.83 21.07 230.98 20.18C232.14 19.3 233.52 18.61 235.14 18.13C236.76 17.65 238.55 17.41 240.51 17.41C242.47 17.41 244.21 17.65 245.82 18.13C247.44 18.61 248.82 19.3 249.98 20.18C251.14 21.07 252.04 22.12 252.69 23.36C253.34 24.59 253.67 25.96 253.67 27.46C253.67 29.92 252.83 32 251.16 33.7C249.49 35.39 247.2 36.51 244.32 37.05V41.26C246.51 41.14 248.68 41.01 250.82 40.86H250.83ZM224.53 9.39H236.71V3.67H244.33V9.39H256.45V15.34H224.52V9.39H224.53ZM236.22 30.58C237.32 31.31 238.75 31.68 240.52 31.68C242.29 31.68 243.82 31.31 244.88 30.58C245.94 29.85 246.47 28.81 246.47 27.46C246.47 26.11 245.94 25.02 244.88 24.28C243.82 23.55 242.37 23.18 240.52 23.18C238.67 23.18 237.32 23.55 236.22 24.28C235.12 25.01 234.57 26.07 234.57 27.46C234.57 28.85 235.12 29.85 236.22 30.58ZM259.92 56.68V3.5H267.54V56.68H259.92Z" fill="#FFD600" stroke="black" stroke-width="5"/>
<path d="M94.01 8.74982C95.68 9.36982 97.12 10.2198 98.31 11.3198C99.5 12.4198 100.44 13.7398 101.11 15.2798C101.78 16.8198 102.12 18.5098 102.12 20.3598C102.08 21.8598 101.8 23.3098 101.28 24.7198C100.76 26.1298 100.1 27.4598 99.29 28.7298C98.48 29.9998 97.57 31.2298 96.55 32.4298C95.53 33.6198 94.48 34.7798 93.4 35.8898L84.45 44.8998C85.22 44.7098 85.96 44.5798 86.67 44.5198C87.38 44.4598 88.07 44.4298 88.72 44.4298H102.58V51.7098H72.5V47.0898L86.99 32.8298C89.18 30.6398 90.92 28.5998 92.19 26.7098C93.46 24.8198 94.1 22.7598 94.1 20.5298C94.1 18.5298 93.55 17.0198 92.45 15.9998C91.35 14.9798 89.86 14.4698 87.98 14.4698C86.36 14.4698 85 14.9398 83.88 15.8798C82.76 16.8198 81.97 17.9298 81.51 19.1998C81.36 19.6198 81.25 20.0698 81.19 20.5298C81.13 20.9898 81.08 21.5098 81.05 22.0898L73.49 20.8198C74.18 16.3898 75.87 13.1198 78.54 10.9998C81.21 8.87982 84.54 7.81982 88.5 7.81982C90.5 7.81982 92.34 8.12982 94.01 8.73982V8.74982Z" fill="#FFD600"/>
<path d="M136.762 40.19C135.952 42.98 134.832 45.29 133.382 47.12C131.932 48.95 130.232 50.31 128.272 51.19C126.312 52.07 124.172 52.52 121.862 52.52C119.552 52.52 117.542 52.08 115.592 51.19C113.642 50.3 111.952 48.95 110.512 47.12C109.072 45.29 107.942 42.98 107.132 40.19C106.322 37.4 105.922 34.1 105.922 30.29C105.922 26.48 106.322 23.12 107.132 20.33C107.942 17.54 109.062 15.23 110.512 13.4C111.952 11.57 113.652 10.22 115.592 9.33C117.532 8.44 119.622 8 121.862 8C124.102 8 126.312 8.44 128.272 9.33C130.232 10.22 131.942 11.57 133.382 13.4C134.822 15.23 135.952 17.54 136.762 20.33C137.572 23.12 137.972 26.44 137.972 30.29C137.972 34.14 137.572 37.4 136.762 40.19ZM129.222 22.64C128.782 20.62 128.192 19.02 127.462 17.85C126.732 16.68 125.872 15.85 124.892 15.37C123.912 14.89 122.902 14.65 121.862 14.65C120.822 14.65 119.892 14.89 118.942 15.37C118.002 15.85 117.162 16.68 116.432 17.85C115.702 19.02 115.112 20.62 114.672 22.64C114.232 24.66 114.012 27.21 114.012 30.29C114.012 33.37 114.232 35.85 114.672 37.85C115.112 39.85 115.702 41.45 116.432 42.64C117.162 43.83 118.002 44.66 118.942 45.12C119.882 45.58 120.852 45.81 121.862 45.81C122.872 45.81 123.912 45.58 124.892 45.12C125.872 44.66 126.732 43.83 127.462 42.64C128.192 41.45 128.782 39.85 129.222 37.85C129.662 35.85 129.882 33.33 129.882 30.29C129.882 27.25 129.662 24.66 129.222 22.64Z" fill="#FFD600"/>
<path d="M171.182 40.19C170.372 42.98 169.252 45.29 167.802 47.12C166.352 48.95 164.652 50.31 162.692 51.19C160.732 52.07 158.592 52.52 156.282 52.52C153.972 52.52 151.962 52.08 150.022 51.19C148.082 50.31 146.382 48.95 144.942 47.12C143.502 45.29 142.372 42.98 141.562 40.19C140.752 37.4 140.352 34.1 140.352 30.29C140.352 26.48 140.752 23.12 141.562 20.33C142.372 17.54 143.492 15.23 144.942 13.4C146.382 11.57 148.082 10.22 150.022 9.33C151.962 8.44 154.052 8 156.282 8C158.512 8 160.732 8.44 162.692 9.33C164.652 10.22 166.362 11.57 167.802 13.4C169.242 15.23 170.372 17.54 171.182 20.33C171.992 23.12 172.392 26.44 172.392 30.29C172.392 34.14 171.992 37.4 171.182 40.19ZM163.642 22.64C163.202 20.62 162.612 19.02 161.882 17.85C161.152 16.68 160.292 15.85 159.312 15.37C158.332 14.89 157.322 14.65 156.282 14.65C155.242 14.65 154.312 14.89 153.362 15.37C152.422 15.85 151.582 16.68 150.852 17.85C150.122 19.02 149.532 20.62 149.092 22.64C148.652 24.66 148.432 27.21 148.432 30.29C148.432 33.37 148.652 35.85 149.092 37.85C149.532 39.85 150.122 41.45 150.852 42.64C151.582 43.83 152.422 44.66 153.362 45.12C154.302 45.58 155.282 45.81 156.282 45.81C157.282 45.81 158.332 45.58 159.312 45.12C160.292 44.66 161.152 43.83 161.882 42.64C162.612 41.45 163.202 39.85 163.642 37.85C164.082 35.85 164.302 33.33 164.302 30.29C164.302 27.25 164.082 24.66 163.642 22.64Z" fill="#FFD600"/>
<path d="M175.801 27.1198H187.461V14.8198H193.751V27.1198H205.411V33.1298H193.751V45.4298H187.461V33.1298H175.801V27.1198Z" fill="#FFD600"/>
<path d="M250.83 40.86C252.97 40.71 255.07 40.48 257.15 40.17L257.73 45.66C254.84 46.2 251.92 46.61 248.95 46.9C245.99 47.19 243.08 47.41 240.23 47.56C237.38 47.71 234.62 47.8 231.94 47.82C229.26 47.84 226.75 47.85 224.4 47.85L223.48 41.67H229.77C231.96 41.67 234.27 41.63 236.7 41.55V37.05C233.81 36.51 231.52 35.4 229.83 33.7C228.14 32.01 227.29 29.93 227.29 27.46C227.29 25.96 227.62 24.59 228.27 23.36C228.92 22.13 229.83 21.07 230.98 20.18C232.14 19.3 233.52 18.61 235.14 18.13C236.76 17.65 238.55 17.41 240.51 17.41C242.47 17.41 244.21 17.65 245.82 18.13C247.44 18.61 248.82 19.3 249.98 20.18C251.14 21.07 252.04 22.12 252.69 23.36C253.34 24.59 253.67 25.96 253.67 27.46C253.67 29.92 252.83 32 251.16 33.7C249.49 35.39 247.2 36.51 244.32 37.05V41.26C246.51 41.14 248.68 41.01 250.82 40.86H250.83ZM224.53 9.39H236.71V3.67H244.33V9.39H256.45V15.34H224.52V9.39H224.53ZM236.22 30.58C237.32 31.31 238.75 31.68 240.52 31.68C242.29 31.68 243.82 31.31 244.88 30.58C245.94 29.85 246.47 28.81 246.47 27.46C246.47 26.11 245.94 25.02 244.88 24.28C243.82 23.55 242.37 23.18 240.52 23.18C238.67 23.18 237.32 23.55 236.22 24.28C235.12 25.01 234.57 26.07 234.57 27.46C234.57 28.85 235.12 29.85 236.22 30.58ZM259.92 56.68V3.5H267.54V56.68H259.92Z" fill="#FFD600"/>
</g>
<defs>
<clipPath id="clip0_179_179">
<rect width="200.04" height="58.18" fill="white" transform="translate(70 1)"/>
</clipPath>
</defs>
</svg>

<svg width="340" height="60" fill="none" xmlns="http://www.w3.org/2000/svg"><g clip-path="url(#a)" fill="#FFD600"><path d="M94.01 8.75c1.67.62 3.11 1.47 4.3 2.57a11.68 11.68 0 0 1 2.8 3.96c.67 1.54 1.01 3.23 1.01 5.08-.04 1.5-.32 2.95-.84 4.36-.52 1.41-1.18 2.74-1.99 4.01-.81 1.27-1.72 2.5-2.74 3.7a74.318 74.318 0 0 1-3.15 3.46l-8.95 9.01c.77-.19 1.51-.32 2.22-.38.71-.06 1.4-.09 2.05-.09h13.86v7.28H72.5v-4.62l14.49-14.26c2.19-2.19 3.93-4.23 5.2-6.12 1.27-1.89 1.91-3.95 1.91-6.18 0-2-.55-3.51-1.65-4.53-1.1-1.02-2.59-1.53-4.47-1.53-1.62 0-2.98.47-4.1 1.41-1.12.94-1.91 2.05-2.37 3.32-.15.42-.26.87-.32 1.33-.06.46-.11.98-.14 1.56l-7.56-1.27c.69-4.43 2.38-7.7 5.05-9.82s6-3.18 9.96-3.18c2 0 3.84.31 5.51.92v.01zM136.762 40.19c-.81 2.79-1.93 5.1-3.38 6.93s-3.15 3.19-5.11 4.07c-1.96.88-4.1 1.33-6.41 1.33-2.31 0-4.32-.44-6.27-1.33-1.95-.89-3.64-2.24-5.08-4.07s-2.57-4.14-3.38-6.93-1.21-6.09-1.21-9.9c0-3.81.4-7.17 1.21-9.96.81-2.79 1.93-5.1 3.38-6.93 1.44-1.83 3.14-3.18 5.08-4.07 1.94-.89 4.03-1.33 6.27-1.33 2.24 0 4.45.44 6.41 1.33 1.96.89 3.67 2.24 5.11 4.07 1.44 1.83 2.57 4.14 3.38 6.93s1.21 6.11 1.21 9.96c0 3.85-.4 7.11-1.21 9.9zm-7.54-17.55c-.44-2.02-1.03-3.62-1.76-4.79s-1.59-2-2.57-2.48c-.98-.48-1.99-.72-3.03-.72-1.04 0-1.97.24-2.92.72-.94.48-1.78 1.31-2.51 2.48-.73 1.17-1.32 2.77-1.76 4.79-.44 2.02-.66 4.57-.66 7.65s.22 5.56.66 7.56c.44 2 1.03 3.6 1.76 4.79s1.57 2.02 2.51 2.48c.94.46 1.91.69 2.92.69s2.05-.23 3.03-.69c.98-.46 1.84-1.29 2.57-2.48.73-1.19 1.32-2.79 1.76-4.79.44-2 .66-4.52.66-7.56s-.22-5.63-.66-7.65zM171.182 40.19c-.81 2.79-1.93 5.1-3.38 6.93s-3.15 3.19-5.11 4.07c-1.96.88-4.1 1.33-6.41 1.33-2.31 0-4.32-.44-6.26-1.33-1.94-.88-3.64-2.24-5.08-4.07s-2.57-4.14-3.38-6.93-1.21-6.09-1.21-9.9c0-3.81.4-7.17 1.21-9.96.81-2.79 1.93-5.1 3.38-6.93 1.44-1.83 3.14-3.18 5.08-4.07 1.94-.89 4.03-1.33 6.26-1.33 2.23 0 4.45.44 6.41 1.33 1.96.89 3.67 2.24 5.11 4.07 1.44 1.83 2.57 4.14 3.38 6.93s1.21 6.11 1.21 9.96c0 3.85-.4 7.11-1.21 9.9zm-7.54-17.55c-.44-2.02-1.03-3.62-1.76-4.79s-1.59-2-2.57-2.48c-.98-.48-1.99-.72-3.03-.72-1.04 0-1.97.24-2.92.72-.94.48-1.78 1.31-2.51 2.48-.73 1.17-1.32 2.77-1.76 4.79-.44 2.02-.66 4.57-.66 7.65s.22 5.56.66 7.56c.44 2 1.03 3.6 1.76 4.79s1.57 2.02 2.51 2.48c.94.46 1.92.69 2.92.69s2.05-.23 3.03-.69c.98-.46 1.84-1.29 2.57-2.48.73-1.19 1.32-2.79 1.76-4.79.44-2 .66-4.52.66-7.56s-.22-5.63-.66-7.65zM175.801 27.12h11.66v-12.3h6.29v12.3h11.66v6.01h-11.66v12.3h-6.29v-12.3h-11.66v-6.01zM250.83 40.86c2.14-.15 4.24-.38 6.32-.69l.58 5.49c-2.89.54-5.81.95-8.78 1.24-2.96.29-5.87.51-8.72.66a184 184 0 0 1-8.29.26c-2.68.02-5.19.03-7.54.03l-.92-6.18h6.29c2.19 0 4.5-.04 6.93-.12v-4.5c-2.89-.54-5.18-1.65-6.87-3.35-1.69-1.69-2.54-3.77-2.54-6.24 0-1.5.33-2.87.98-4.1.65-1.23 1.56-2.29 2.71-3.18 1.16-.88 2.54-1.57 4.16-2.05 1.62-.48 3.41-.72 5.37-.72s3.7.24 5.31.72c1.62.48 3 1.17 4.16 2.05 1.16.89 2.06 1.94 2.71 3.18.65 1.23.98 2.6.98 4.1 0 2.46-.84 4.54-2.51 6.24-1.67 1.69-3.96 2.81-6.84 3.35v4.21c2.19-.12 4.36-.25 6.5-.4h.01zm-26.3-31.47h12.18V3.67h7.62v5.72h12.12v5.95h-31.93V9.39h.01zm11.69 21.19c1.1.73 2.53 1.1 4.3 1.1s3.3-.37 4.36-1.1c1.06-.73 1.59-1.77 1.59-3.12s-.53-2.44-1.59-3.18c-1.06-.73-2.51-1.1-4.36-1.1-1.85 0-3.2.37-4.3 1.1-1.1.73-1.65 1.79-1.65 3.18 0 1.39.55 2.39 1.65 3.12zm23.7 26.1V3.5h7.62v53.18h-7.62z" stroke="#000" stroke-width="5"/><path d="M94.01 8.75c1.67.62 3.11 1.47 4.3 2.57a11.68 11.68 0 0 1 2.8 3.96c.67 1.54 1.01 3.23 1.01 5.08-.04 1.5-.32 2.95-.84 4.36-.52 1.41-1.18 2.74-1.99 4.01-.81 1.27-1.72 2.5-2.74 3.7a74.318 74.318 0 0 1-3.15 3.46l-8.95 9.01c.77-.19 1.51-.32 2.22-.38.71-.06 1.4-.09 2.05-.09h13.86v7.28H72.5v-4.62l14.49-14.26c2.19-2.19 3.93-4.23 5.2-6.12 1.27-1.89 1.91-3.95 1.91-6.18 0-2-.55-3.51-1.65-4.53-1.1-1.02-2.59-1.53-4.47-1.53-1.62 0-2.98.47-4.1 1.41-1.12.94-1.91 2.05-2.37 3.32-.15.42-.26.87-.32 1.33-.06.46-.11.98-.14 1.56l-7.56-1.27c.69-4.43 2.38-7.7 5.05-9.82s6-3.18 9.96-3.18c2 0 3.84.31 5.51.92v.01zM136.762 40.19c-.81 2.79-1.93 5.1-3.38 6.93s-3.15 3.19-5.11 4.07c-1.96.88-4.1 1.33-6.41 1.33-2.31 0-4.32-.44-6.27-1.33-1.95-.89-3.64-2.24-5.08-4.07s-2.57-4.14-3.38-6.93-1.21-6.09-1.21-9.9c0-3.81.4-7.17 1.21-9.96.81-2.79 1.93-5.1 3.38-6.93 1.44-1.83 3.14-3.18 5.08-4.07 1.94-.89 4.03-1.33 6.27-1.33 2.24 0 4.45.44 6.41 1.33 1.96.89 3.67 2.24 5.11 4.07 1.44 1.83 2.57 4.14 3.38 6.93s1.21 6.11 1.21 9.96c0 3.85-.4 7.11-1.21 9.9zm-7.54-17.55c-.44-2.02-1.03-3.62-1.76-4.79s-1.59-2-2.57-2.48c-.98-.48-1.99-.72-3.03-.72-1.04 0-1.97.24-2.92.72-.94.48-1.78 1.31-2.51 2.48-.73 1.17-1.32 2.77-1.76 4.79-.44 2.02-.66 4.57-.66 7.65s.22 5.56.66 7.56c.44 2 1.03 3.6 1.76 4.79s1.57 2.02 2.51 2.48c.94.46 1.91.69 2.92.69s2.05-.23 3.03-.69c.98-.46 1.84-1.29 2.57-2.48.73-1.19 1.32-2.79 1.76-4.79.44-2 .66-4.52.66-7.56s-.22-5.63-.66-7.65zM171.182 40.19c-.81 2.79-1.93 5.1-3.38 6.93s-3.15 3.19-5.11 4.07c-1.96.88-4.1 1.33-6.41 1.33-2.31 0-4.32-.44-6.26-1.33-1.94-.88-3.64-2.24-5.08-4.07s-2.57-4.14-3.38-6.93-1.21-6.09-1.21-9.9c0-3.81.4-7.17 1.21-9.96.81-2.79 1.93-5.1 3.38-6.93 1.44-1.83 3.14-3.18 5.08-4.07 1.94-.89 4.03-1.33 6.26-1.33 2.23 0 4.45.44 6.41 1.33 1.96.89 3.67 2.24 5.11 4.07 1.44 1.83 2.57 4.14 3.38 6.93s1.21 6.11 1.21 9.96c0 3.85-.4 7.11-1.21 9.9zm-7.54-17.55c-.44-2.02-1.03-3.62-1.76-4.79s-1.59-2-2.57-2.48c-.98-.48-1.99-.72-3.03-.72-1.04 0-1.97.24-2.92.72-.94.48-1.78 1.31-2.51 2.48-.73 1.17-1.32 2.77-1.76 4.79-.44 2.02-.66 4.57-.66 7.65s.22 5.56.66 7.56c.44 2 1.03 3.6 1.76 4.79s1.57 2.02 2.51 2.48c.94.46 1.92.69 2.92.69s2.05-.23 3.03-.69c.98-.46 1.84-1.29 2.57-2.48.73-1.19 1.32-2.79 1.76-4.79.44-2 .66-4.52.66-7.56s-.22-5.63-.66-7.65zM175.801 27.12h11.66v-12.3h6.29v12.3h11.66v6.01h-11.66v12.3h-6.29v-12.3h-11.66v-6.01zM250.83 40.86c2.14-.15 4.24-.38 6.32-.69l.58 5.49c-2.89.54-5.81.95-8.78 1.24-2.96.29-5.87.51-8.72.66a184 184 0 0 1-8.29.26c-2.68.02-5.19.03-7.54.03l-.92-6.18h6.29c2.19 0 4.5-.04 6.93-.12v-4.5c-2.89-.54-5.18-1.65-6.87-3.35-1.69-1.69-2.54-3.77-2.54-6.24 0-1.5.33-2.87.98-4.1.65-1.23 1.56-2.29 2.71-3.18 1.16-.88 2.54-1.57 4.16-2.05 1.62-.48 3.41-.72 5.37-.72s3.7.24 5.31.72c1.62.48 3 1.17 4.16 2.05 1.16.89 2.06 1.94 2.71 3.18.65 1.23.98 2.6.98 4.1 0 2.46-.84 4.54-2.51 6.24-1.67 1.69-3.96 2.81-6.84 3.35v4.21c2.19-.12 4.36-.25 6.5-.4h.01zm-26.3-31.47h12.18V3.67h7.62v5.72h12.12v5.95h-31.93V9.39h.01zm11.69 21.19c1.1.73 2.53 1.1 4.3 1.1s3.3-.37 4.36-1.1c1.06-.73 1.59-1.77 1.59-3.12s-.53-2.44-1.59-3.18c-1.06-.73-2.51-1.1-4.36-1.1-1.85 0-3.2.37-4.3 1.1-1.1.73-1.65 1.79-1.65 3.18 0 1.39.55 2.39 1.65 3.12zm23.7 26.1V3.5h7.62v53.18h-7.62z"/></g><defs><clipPath id="a"><path fill="#fff" transform="translate(70 1)" d="M0 0h200.04v58.18H0z"/></clipPath></defs></svg>
